SVG_Azure_Grouped/Data/Azure Synapse Analytics Spark Pool.svg

<?xml version="1.0" encoding="UTF-8" standalone="no"?>
<!-- Generated by Microsoft Visio, SVG Export Azure Synapse Analytics Spark Pool.svg Page-1 -->

<svg
   xmlns:dc="http://purl.org/dc/elements/1.1/"
   xmlns:cc="http://creativecommons.org/ns#"
   xmlns:rdf="http://www.w3.org/1999/02/22-rdf-syntax-ns#"
   xmlns:svg="http://www.w3.org/2000/svg"
   xmlns="http://www.w3.org/2000/svg"
   xmlns:sodipodi="http://sodipodi.sourceforge.net/DTD/sodipodi-0.dtd"
   xmlns:inkscape="http://www.inkscape.org/namespaces/inkscape"
   width="0.78739661in"
   height="0.78736508in"
   viewBox="0 0 56.692554 56.690426"
   xml:space="preserve"
   class="st6"
   version="1.1"
   id="svg94"
   sodipodi:docname="Azure Synapse Analytics Spark Pool.svg"
   style="font-size:12px;overflow:visible;color-interpolation-filters:sRGB;fill:none;fill-rule:evenodd;stroke-linecap:square;stroke-miterlimit:3"
   inkscape:version="0.92.5 (2060ec1f9f, 2020-04-08)"><metadata
   id="metadata98"><rdf:RDF><cc:Work
       rdf:about=""><dc:format>image/svg+xml</dc:format><dc:type
         rdf:resource="http://purl.org/dc/dcmitype/StillImage" /></cc:Work></rdf:RDF></metadata><sodipodi:namedview
   pagecolor="#ffffff"
   bordercolor="#666666"
   borderopacity="1"
   objecttolerance="10"
   gridtolerance="10"
   guidetolerance="10"
   inkscape:pageopacity="0"
   inkscape:pageshadow="2"
   inkscape:window-width="640"
   inkscape:window-height="480"
   id="namedview96"
   showgrid="false"
   inkscape:zoom="1.8365233"
   inkscape:cx="37.795184"
   inkscape:cy="18.900351"
   inkscape:window-x="0"
   inkscape:window-y="0"
   inkscape:window-maximized="0"
   inkscape:current-layer="svg94" />
	<style
   type="text/css"
   id="style2">
	<![CDATA[
		.st1 {fill:#0078d4;stroke:none;stroke-linecap:butt;stroke-width:0.75}
		.st2 {fill:url(#grad0-12);stroke:none;stroke-linecap:butt;stroke-width:0.75}
		.st3 {fill:#50e6ff;stroke:none;stroke-linecap:butt;stroke-width:0.75}
		.st4 {fill:url(#grad0-20);stroke:none;stroke-linecap:butt;stroke-width:0.75}
		.st5 {fill:#000000;stroke:none;stroke-linecap:butt;stroke-width:0.75}
		.st6 {fill:none;fill-rule:evenodd;font-size:12px;overflow:visible;stroke-linecap:square;stroke-miterlimit:3}
	]]>
	</style>

	<defs
   id="Patterns_And_Gradients">
		<linearGradient
   id="grad0-12"
   x1="0"
   y1="142.59677"
   x2="24.456551"
   y2="142.59677"
   gradientTransform="scale(1.7332779,0.57694153)"
   gradientUnits="userSpaceOnUse">
			<stop
   offset="0.2"
   stop-color="#005ba1"
   stop-opacity="1"
   id="stop4" />
			<stop
   offset="1"
   stop-color="#0078d4"
   stop-opacity="1"
   id="stop6" />
		</linearGradient>
		<linearGradient
   id="grad0-20"
   x1="-1.2569145"
   y1="91.476379"
   x2="21.576249"
   y2="91.476379"
   gradientTransform="scale(1.1688779,0.85552137)"
   gradientUnits="userSpaceOnUse">
			<stop
   offset="0"
   stop-color="#198ab3"
   stop-opacity="1"
   id="stop9" />
			<stop
   offset="0.17"
   stop-color="#32bedd"
   stop-opacity="1"
   id="stop11" />
			<stop
   offset="0.5"
   stop-color="#50e6ff"
   stop-opacity="1"
   id="stop13" />
			<stop
   offset="0.5"
   stop-color="#4fe4fd"
   stop-opacity="1"
   id="stop15" />
			<stop
   offset="0.5"
   stop-color="#4bddf8"
   stop-opacity="1"
   id="stop17" />
			<stop
   offset="0.5"
   stop-color="#44d2ee"
   stop-opacity="1"
   id="stop19" />
			<stop
   offset="0.5"
   stop-color="#3ac1e0"
   stop-opacity="1"
   id="stop21" />
			<stop
   offset="0.5"
   stop-color="#2dabce"
   stop-opacity="1"
   id="stop23" />
			<stop
   offset="0.5"
   stop-color="#1d90b8"
   stop-opacity="1"
   id="stop25" />
			<stop
   offset="0.5"
   stop-color="#198ab3"
   stop-opacity="1"
   id="stop27" />
			<stop
   offset="0.66"
   stop-color="#32bedd"
   stop-opacity="1"
   id="stop29" />
			<stop
   offset="0.975"
   stop-color="#50e6ff"
   stop-opacity="1"
   id="stop31" />
		</linearGradient>
	</defs>
	<g
   id="g92"
   transform="translate(-5.6693772,-5.67387)">
		<title
   id="title35">Page-1</title>
		<g
   id="group19556-1"
   transform="translate(5.66929,-34.0157)">
			<title
   id="title37">Azure Synapse Analytics Spark Pool.19556</title>
			<g
   id="group19557-2">
				<title
   id="title39">Page-1</title>
				<g
   id="group19558-3">
					<title
   id="title41">Sheet.19558</title>
					<g
   id="group19559-4"
   transform="translate(0,-9.48043)">
						<title
   id="title43">Sheet.19559</title>
						<g
   id="group19560-5">
							<title
   id="title45">Sheet.19560</title>
							<g
   id="shape19561-6">
								<title
   id="title47">Sheet.19561</title>
								<path
   d="M 21.2,49.17 0,60.94 V 84.47 L 21.2,96.38 42.39,84.6 V 60.99 Z M 38.47,82.13 21.2,91.84 3.91,82.23 V 63.27 l 17.29,-9.7 17.27,9.73 z"
   class="st1"
   id="path49"
   inkscape:connector-curvature="0"
   style="fill:#0078d4;stroke:none;stroke-width:0.75;stroke-linecap:butt" />
							</g>
						</g>
						<g
   id="group19562-8"
   transform="translate(0,-33.0995)">
							<title
   id="title53">Sheet.19562</title>
							<g
   id="shape19563-9">
								<title
   id="title55">Sheet.19563</title>
								<path
   d="M 21.2,82.27 0,94.04 l 3.91,2.34 17.29,-9.71 17.27,9.71 3.92,-2.34 z"
   class="st2"
   id="path57"
   inkscape:connector-curvature="0"
   style="fill:url(#grad0-12);stroke:none;stroke-width:0.75;stroke-linecap:butt" />
							</g>
						</g>
						<g
   id="group19564-13"
   transform="translate(6.64957,-5.89864)">
							<title
   id="title61">Sheet.19564</title>
							<g
   id="shape19565-14">
								<title
   id="title63">Sheet.19565</title>
								<path
   d="M 24.64,82.54 A 1.97085,1.91463 -180 0 0 23.77,81.79 15.7532,15.3039 -180 0 0 11.68,73.01 L 29.17,63.19 25.1,60.92 5.18,72.11 a 2.02484,1.96709 -180 0 0 1.02,3.68 1.84665,1.79399 -180 0 0 0.24,-0.07 l 0.34,1.38 a 11.6604,11.3278 0 0 1 13.07,5.86 L 0,94.11 4.05,96.38 23.91,85.23 a 1.96815,1.91201 -180 0 0 0.64,-0.63 l 0.21,-0.04 c -0.03,-0.08 -0.05,-0.15 -0.07,-0.22 a 1.98434,1.92774 -180 0 0 -0.05,-1.8 z"
   class="st3"
   id="path65"
   inkscape:connector-curvature="0"
   style="fill:#50e6ff;stroke:none;stroke-width:0.75;stroke-linecap:butt" />
							</g>
						</g>
						<g
   id="group19566-16"
   transform="translate(9.32238,-15.2857)">
							<title
   id="title69">Sheet.19566</title>
							<g
   id="shape19567-17">
								<title
   id="title71">Sheet.19567</title>
								<path
   d="m 20.21,88.09 a 4.99459,4.85214 -180 1 0 5.01,4.85 4.99459,4.85214 -180 0 0 -5.01,-4.85 z M 3.52,78.26 a 4.99459,4.85214 -180 1 0 5,4.85 4.99459,4.85214 -180 0 0 -5,-4.85 z"
   class="st4"
   id="path73"
   inkscape:connector-curvature="0"
   style="fill:url(#grad0-20);stroke:none;stroke-width:0.75;stroke-linecap:butt" />
							</g>
						</g>
					</g>
					<g
   id="group19568-21"
   transform="translate(34.4427)">
						<title
   id="title78">Sheet.19568</title>
						<g
   id="group19569-22">
							<title
   id="title80">Sheet.19569</title>
							<g
   id="shape19570-23">
								<title
   id="title82">Sheet.19570</title>
								<path
   d="m 22.25,89.81 -3.23,1.78 3.23,1.77 -0.7,1.24 -3.25,-1.78 v 3.56 h -1.4 v -3.56 l -3.23,1.78 -0.71,-1.24 3.23,-1.77 -3.23,-1.78 0.71,-1.23 3.23,1.77 v -3.56 h 1.4 v 3.56 l 3.25,-1.77 z M 8.45,78.59 v 4.1 h 2.82 L 7.04,88.17 V 84.06 H 4.23 Z m 2.26,13.68 c 0.06,0.08 0.13,0.17 0.2,0.29 0.06,0.12 0.12,0.23 0.17,0.35 0.06,0.12 0.09,0.25 0.14,0.37 0.03,0.13 0.05,0.26 0.05,0.35 H 9.85 V 95 H 8.45 V 93.63 H 7.04 V 95 H 5.64 V 93.63 H 4.23 V 95 H 2.81 V 93.63 H 1.41 V 92.27 H 0 V 90.9 H 1.41 V 89.54 H 0 V 88.17 H 1.41 V 86.79 H 0 V 85.43 H 1.41 V 84.06 H 0 V 82.69 H 1.41 V 81.33 H 0 V 79.95 H 1.41 V 78.59 H 0 v -1.37 h 1.41 v -1.37 h 1.4 v -1.36 h 1.42 v 1.36 h 1.41 v -1.36 h 1.4 v 1.36 h 1.41 v -1.36 h 1.4 v 1.36 h 1.42 v -1.36 h 1.41 v 1.36 h 1.4 v -1.36 h 1.41 v 1.36 h 1.41 v -1.36 h 1.4 v 1.36 h 1.42 v 1.37 h 1.41 v 1.37 h -1.41 v 1.36 h 1.41 v 1.38 h -1.41 v 1.36 h 1.41 v 1.37 h -1.41 v 1.37 H 18.3 V 77.22 H 2.81 v 15.05 z"
   class="st5"
   id="path84"
   inkscape:connector-curvature="0"
   style="fill:#000000;stroke:none;stroke-width:0.75;stroke-linecap:butt" />
							</g>
						</g>
					</g>
				</g>
			</g>
		</g>
	</g>
</svg>

<?xml version="1.0" encoding="UTF-8" standalone="no"?>
<!DOCTYPE svg PUBLIC "-//W3C//DTD SVG 1.1//EN" "http://www.w3.org/Graphics/SVG/1.1/DTD/svg11.dtd">
<!-- Generated by Microsoft Visio, SVG Export Azure Synapse Analytics Spark Pool.svg Page-1 -->
<svg xmlns="http://www.w3.org/2000/svg" xmlns:xlink="http://www.w3.org/1999/xlink" xmlns:ev="http://www.w3.org/2001/xml-events"
		width="0.944882in" height="1.33858in" viewBox="0 0 68.0315 96.378" xml:space="preserve" color-interpolation-filters="sRGB"
		class="st6">
	<style type="text/css">
	<![CDATA[
		.st1 {fill:#0078d4;stroke:none;stroke-linecap:butt;stroke-width:0.75}
		.st2 {fill:url(#grad0-12);stroke:none;stroke-linecap:butt;stroke-width:0.75}
		.st3 {fill:#50e6ff;stroke:none;stroke-linecap:butt;stroke-width:0.75}
		.st4 {fill:url(#grad0-20);stroke:none;stroke-linecap:butt;stroke-width:0.75}
		.st5 {fill:#000000;stroke:none;stroke-linecap:butt;stroke-width:0.75}
		.st6 {fill:none;fill-rule:evenodd;font-size:12px;overflow:visible;stroke-linecap:square;stroke-miterlimit:3}
	]]>
	</style>

	<defs id="Patterns_And_Gradients">
		<linearGradient id="grad0-12" x1="0" y1="0" x2="1" y2="0" gradientTransform="rotate(-90 0.5 0.5)">
			<stop offset="0.2" stop-color="#005ba1" stop-opacity="1"/>
			<stop offset="1" stop-color="#0078d4" stop-opacity="1"/>
		</linearGradient>
		<linearGradient id="grad0-20" x1="0" y1="0" x2="1" y2="0" gradientTransform="rotate(-90 0.5 0.5)">
			<stop offset="0" stop-color="#198ab3" stop-opacity="1"/>
			<stop offset="0.17" stop-color="#32bedd" stop-opacity="1"/>
			<stop offset="0.5" stop-color="#50e6ff" stop-opacity="1"/>
			<stop offset="0.5" stop-color="#4fe4fd" stop-opacity="1"/>
			<stop offset="0.5" stop-color="#4bddf8" stop-opacity="1"/>
			<stop offset="0.5" stop-color="#44d2ee" stop-opacity="1"/>
			<stop offset="0.5" stop-color="#3ac1e0" stop-opacity="1"/>
			<stop offset="0.5" stop-color="#2dabce" stop-opacity="1"/>
			<stop offset="0.5" stop-color="#1d90b8" stop-opacity="1"/>
			<stop offset="0.5" stop-color="#198ab3" stop-opacity="1"/>
			<stop offset="0.66" stop-color="#32bedd" stop-opacity="1"/>
			<stop offset="0.975" stop-color="#50e6ff" stop-opacity="1"/>
		</linearGradient>
	</defs>
	<g>
		<title>Page-1</title>
		<g id="group19107-1" transform="translate(5.66929,-34.0157)">
			<title>Azure Synapse Analytics Spark Pool.19107</title>
			<g id="group19108-2">
				<title>Page-1</title>
				<g id="group19109-3">
					<title>Sheet.19109</title>
					<g id="group19110-4" transform="translate(0,-9.48043)">
						<title>Sheet.19110</title>
						<g id="group19111-5">
							<title>Sheet.19111</title>
							<g id="shape19112-6">
								<title>Sheet.19112</title>
								<path d="M21.2 49.17 L0 60.94 L0 84.47 L21.2 96.38 L42.39 84.6 L42.39 60.99 L21.2 49.17 ZM38.47 82.13
											 L21.2 91.84 L3.91 82.23 L3.91 63.27 L21.2 53.57 L38.47 63.3 L38.47 82.13 Z"
										class="st1"/>
							</g>
						</g>
						<g id="group19113-8" transform="translate(0,-33.0995)">
							<title>Sheet.19113</title>
							<g id="shape19114-9">
								<title>Sheet.19114</title>
								<path d="M21.2 82.27 L0 94.04 L3.91 96.38 L21.2 86.67 L38.47 96.38 L42.39 94.04 L21.2 82.27 Z"
										class="st2"/>
							</g>
						</g>
						<g id="group19115-13" transform="translate(6.64957,-5.89864)">
							<title>Sheet.19115</title>
							<g id="shape19116-14">
								<title>Sheet.19116</title>
								<path d="M24.64 82.54 A1.97085 1.91463 -180 0 0 23.77 81.79 A15.7532 15.3039 -180 0 0 11.68 73.01
											 L29.17 63.19 L25.1 60.92 L5.18 72.11 A2.02484 1.96709 -180 0 0 6.2 75.79 A1.84665 1.79399
											 -180 0 0 6.44 75.72 L6.78 77.1 A11.6604 11.3278 0 0 1 19.85 82.96 L0 94.11 L4.05 96.38
											 L23.91 85.23 A1.96815 1.91201 -180 0 0 24.55 84.6 L24.76 84.56 C24.73 84.48 24.71 84.41
											 24.69 84.34 A1.98434 1.92774 -180 0 0 24.64 82.54 Z" class="st3"/>
							</g>
						</g>
						<g id="group19117-16" transform="translate(9.32238,-15.2857)">
							<title>Sheet.19117</title>
							<g id="shape19118-17">
								<title>Sheet.19118</title>
								<path d="M20.21 88.09 A4.99459 4.85214 -180 1 0 25.22 92.94 A4.99459 4.85214 -180 0 0 20.21 88.09
											 ZM3.52 78.26 A4.99459 4.85214 -180 1 0 8.52 83.11 A4.99459 4.85214 -180 0 0 3.52 78.26
											 Z" class="st4"/>
							</g>
						</g>
					</g>
					<g id="group19119-21" transform="translate(34.4427,2.84217E-13)">
						<title>Sheet.19119</title>
						<g id="group19120-22">
							<title>Sheet.19120</title>
							<g id="shape19121-23">
								<title>Sheet.19121</title>
								<path d="M22.25 89.81 L19.02 91.59 L22.25 93.36 L21.55 94.6 L18.3 92.82 L18.3 96.38 L16.9 96.38 L16.9
											 92.82 L13.67 94.6 L12.96 93.36 L16.19 91.59 L12.96 89.81 L13.67 88.58 L16.9 90.35 L16.9
											 86.79 L18.3 86.79 L18.3 90.35 L21.55 88.58 L22.25 89.81 ZM8.45 78.59 L8.45 82.69 L11.27
											 82.69 L7.04 88.17 L7.04 84.06 L4.23 84.06 L8.45 78.59 ZM10.71 92.27 C10.77 92.35 10.84
											 92.44 10.91 92.56 C10.97 92.68 11.03 92.79 11.08 92.91 C11.14 93.03 11.17 93.16 11.22
											 93.28 C11.25 93.41 11.27 93.54 11.27 93.63 L9.85 93.63 L9.85 95 L8.45 95 L8.45 93.63
											 L7.04 93.63 L7.04 95 L5.64 95 L5.64 93.63 L4.23 93.63 L4.23 95 L2.81 95 L2.81 93.63
											 L1.41 93.63 L1.41 92.27 L0 92.27 L0 90.9 L1.41 90.9 L1.41 89.54 L0 89.54 L0 88.17 L1.41
											 88.17 L1.41 86.79 L0 86.79 L0 85.43 L1.41 85.43 L1.41 84.06 L0 84.06 L0 82.69 L1.41
											 82.69 L1.41 81.33 L0 81.33 L0 79.95 L1.41 79.95 L1.41 78.59 L0 78.59 L0 77.22 L1.41
											 77.22 L1.41 75.85 L2.81 75.85 L2.81 74.49 L4.23 74.49 L4.23 75.85 L5.64 75.85 L5.64
											 74.49 L7.04 74.49 L7.04 75.85 L8.45 75.85 L8.45 74.49 L9.85 74.49 L9.85 75.85 L11.27
											 75.85 L11.27 74.49 L12.68 74.49 L12.68 75.85 L14.08 75.85 L14.08 74.49 L15.49 74.49
											 L15.49 75.85 L16.9 75.85 L16.9 74.49 L18.3 74.49 L18.3 75.85 L19.72 75.85 L19.72 77.22
											 L21.13 77.22 L21.13 78.59 L19.72 78.59 L19.72 79.95 L21.13 79.95 L21.13 81.33 L19.72
											 81.33 L19.72 82.69 L21.13 82.69 L21.13 84.06 L19.72 84.06 L19.72 85.43 L18.3 85.43 L18.3
											 77.22 L2.81 77.22 L2.81 92.27 L10.71 92.27 Z" class="st5"/>
							</g>
						</g>
					</g>
				</g>
			</g>
		</g>
	</g>
</svg>
